X:1
T:Reel St Marc
Z:robin.beech@mcgill.ca
R:reel
S:Laurence Beaudry
M:4/4
L:1/8
K:Am
c2Ac BABc | defg fedc | c2Ac BAEG | ABcd edcB |
c2Ac BABc | defg fedc | cBAc BAEG | Aaec A2 :| 
c2ec fcec | dedc Bcde | d2gd bdgd | ag^fa gedB |
c2ec fcec | dedc Bcde | fedc BAGF | EGAB c4 :|

